X:066 
T:Good for Starters* (slide)  
F:file ID: cre.5/066good_s
B:CRE5.069 (gan ainm)
Q:160
M:12/8
R:slide
K:D
B/c/|d2d dcd e2e e2d|cBc ABc d2f agf|
d2d dcd e2e e2d|cBc ABc d2f d2:|
|:e|f2f fef a2g g2f|e2e ede g2f f2e|
d2d dcd e2e e2d|cBc ABc d2f d2:|

%%%

